symbols/web/gpp_bad/materialsymbolsoutlined/gpp_bad_wght300gradN25fill1_24px.svg

<svg xmlns="http://www.w3.org/2000/svg" height="24" width="24"><path d="M9.925 15.025 12 12.95l2.075 2.075 1-.975L13 11.95l2.075-2.075-1-.975L12 10.975 9.925 8.9l-1 .975L11 11.95l-2.075 2.1ZM12 21.275q-3.175-.85-5.25-3.737Q4.675 14.65 4.675 11.1V5.5L12 2.75l7.325 2.75v5.6q0 3.55-2.075 6.438-2.075 2.887-5.25 3.737Z"/></svg>

<svg xmlns="http://www.w3.org/2000/svg" height="24" width="24"><path d="M9.925 15.025 12 12.95 14.075 15.025 15.075 14.05 13 11.95 15.075 9.875 14.075 8.9 12 10.975 9.925 8.9 8.925 9.875 11 11.95 8.925 14.05ZM12 21.275Q8.825 20.425 6.75 17.538Q4.675 14.65 4.675 11.1V5.5L12 2.75L19.325 5.5V11.1Q19.325 14.65 17.25 17.538Q15.175 20.425 12 21.275Z"/></svg>
